client/public/img/game/shared/projectiles/proj_smoke_nopin.svg

<?xml version="1.0" encoding="UTF-8" standalone="no"?>
<svg
   width="40"
   height="65"
   viewBox="0 0 40 65"
   fill="none"
   version="1.1"
   id="svg6"
   xmlns="http://www.w3.org/2000/svg"
   xmlns:svg="http://www.w3.org/2000/svg">
  <defs
     id="defs6" />
  <path
     d="M31.7974 4.433C31.7974 4.91459 31.9886 5.37642 32.329 5.71696C32.6693 6.05749 33.131 6.24882 33.6124 6.24882C33.8507 6.24883 34.0867 6.20185 34.3069 6.1106C34.5271 6.01934 34.7272 5.88563 34.8958 5.71702C35.0643 5.5484 35.198 5.34823 35.2892 5.12792C35.3804 4.90762 35.4274 4.67147 35.4274 4.433C35.4274 4.19454 35.3804 3.95839 35.2892 3.73808C35.198 3.51778 35.0643 3.31761 34.8958 3.14899C34.7272 2.98038 34.5271 2.84667 34.3069 2.75541C34.0867 2.66416 33.8507 2.61718 33.6124 2.61719C33.131 2.61719 32.6693 2.80846 32.329 3.14899C31.9886 3.48953 31.7974 3.95142 31.7974 4.433Z"
     fill="#373225"
     stroke="#1B1913"
     stroke-width="4"
     stroke-miterlimit="3.99393"
     id="path1" />
  <path
     d="M37.0874 21.2363C37.0874 20.684 36.6397 20.2363 36.0874 20.2363H14.396C13.8437 20.2363 13.396 20.684 13.396 21.2363L13.396 61.6177C13.396 62.17 13.8437 62.6177 14.396 62.6177H36.0874C36.6397 62.6177 37.0874 62.17 37.0874 61.6177V21.2363Z"
     fill="#47572B"
     id="path2" />
  <path
     d="M29.0543 3.45508L30.1513 4.43315H33.5937L29.0543 10.6207L30.1513 15.9116V20.2358H20.3896V15.9116H13.396L17.8283 3.45508L29.0543 3.45508Z"
     fill="#4E4735"
     stroke="#1B1913"
     stroke-width="4"
     stroke-miterlimit="3.99393"
     stroke-linecap="square"
     id="path3" />
  <path
     d="M37.0874 46.6621H13.396V53.1221H37.0874V46.6621Z"
     fill="#9CA38F"
     id="path4" />
  <path
     d="M15.2596 10.6758L2.27295 16.0401L2.27295 37.7629L7.6227 39.7203L7.6227 18.3395L13.3959 15.913L15.2596 10.6758Z"
     fill="#4E4735"
     stroke="#1B1913"
     stroke-width="4"
     stroke-miterlimit="3.99393"
     id="path5" />
  <path
     d="M37.0874 21.2363C37.0874 20.684 36.6397 20.2363 36.0874 20.2363H14.396C13.8437 20.2363 13.396 20.684 13.396 21.2363L13.396 61.6177C13.396 62.17 13.8437 62.6177 14.396 62.6177H36.0874C36.6397 62.6177 37.0874 62.17 37.0874 61.6177V21.2363Z"
     stroke="#191F0F"
     stroke-width="4"
     stroke-miterlimit="3.99393"
     id="path6" />
</svg>

<svg xmlns="http://www.w3.org/2000/svg" width="40" height="65" fill="none"><path fill="#373225" stroke="#1B1913" stroke-miterlimit="3.994" stroke-width="4" d="M31.797 4.433a1.816 1.816 0 1 0 3.633 0 1.816 1.816 0 0 0-3.633 0Z"/><path fill="#47572B" d="M37.087 21.236a1 1 0 0 0-1-1H14.396a1 1 0 0 0-1 1v40.382a1 1 0 0 0 1 1h21.691a1 1 0 0 0 1-1z"/><path fill="#4E4735" stroke="#1B1913" stroke-linecap="square" stroke-miterlimit="3.994" stroke-width="4" d="m29.054 3.455 1.097.978h3.443l-4.54 6.188 1.097 5.29v4.325H20.39v-4.324h-6.994l4.432-12.457z"/><path fill="#9CA38F" d="M37.087 46.662H13.396v6.46h23.691z"/><path fill="#4E4735" stroke="#1B1913" stroke-miterlimit="3.994" stroke-width="4" d="M15.26 10.676 2.273 16.04v21.723l5.35 1.957V18.34l5.773-2.427z"/><path stroke="#191F0F" stroke-miterlimit="3.994" stroke-width="4" d="M37.087 21.236a1 1 0 0 0-1-1H14.396a1 1 0 0 0-1 1v40.382a1 1 0 0 0 1 1h21.691a1 1 0 0 0 1-1z"/></svg>
